X: 36448
T: Second Pint, The
R: slip jig
M: 9/8
K: Gmajor
|:DGE FGA B2 G|D2 G FGA G2 z|D2 G FGA Bcd|edc BcA B2 G:|
|:B2 d cee dBG|Bdg agf g2 d|B2 d cee dBG|cBA FGA B2 G:|
DGE FGA B2 G|D2 G FGA G2 z|D2 G FGA Bcd|edc BcA B2 G|
|:g2 d edc B2 G|AcB AGF E2 D|g2 d edc B2 d|efg cBA B2 G:|

